!!!COM:	Bach, Johann Sebastian
!!!CDT:	1685/02/21/-1750/07/28/
!!!OTL@@DE:	Sollt ich meinem Gott nicht singen
!!!SCT:	BWV 413
!!!PC#:	220
!!!AGN:	chorale
**kern	**kern	**kern	**kern
*ICvox	*ICvox	*ICvox	*ICvox
*Ibass	*Itenor	*Ialto	*Isoprn
*I"Bass	*I"Tenor	*I"Alto	*I"Soprano
*>[A,A,B]	*>[A,A,B]	*>[A,A,B]	*>[A,A,B]
*>norep[A,B]	*>norep[A,B]	*>norep[A,B]	*>norep[A,B]
*>A	*>A	*>A	*>A
*clefF4	*clefGv2	*clefG2	*clefG2
*k[b-]	*k[b-]	*k[b-]	*k[b-]
*d:	*d:	*d:	*d:
*M3/4	*M3/4	*M3/4	*M3/4
*MM100	*MM100	*MM100	*MM100
=1-	=1-	=1-	=1-
4D	4.F	4A	4.d
4DD	.	8dL	.
.	8G	8c#	8e
4D	[4A	8d	8fL
.	.	8eJ	8gJ
=2	=2	=2	=2
8DL	4A]	8fL	2a
8C#	.	8e	.
8D	4.d	8f	.
8E	.	8gJ	.
8F	.	[4a	4dd
8GJ	8e	.	.
=3	=3	=3	=3
4A	4f	4a]	4dd
4G	4g	4b-	4ee
4A	8eL	4a	4cc#
.	[8gJ	.	.
=4	=4	=4	=4
2D	4g]	2a	2dd
.	8fL	.	.
.	8eJ	.	.
4DD;	4f;	4a;	4dd;
=5	=5	=5	=5
8DL	2d	2a	2ff
8E	.	.	.
8F	.	.	.
8G	.	.	.
8A	[4c	4a	4ee
8AAJ	.	.	.
=6	=6	=6	=6
8BB-L	4c]	2f	2dd
8C	.	.	.
8D	4.B-	.	.
8E	.	.	.
8F	.	4f	4cc
8FFJ	8A	.	.
=7	=7	=7	=7
8BB-L	8B-L	4f	8ddL
8AAJ	8cJ	.	8ccJ
4GG	4d	8fL	2b-
.	.	8gJ	.
4C	4c	8fL	.
.	.	8eJ	.
=8	=8	=8	=8
2.FF;	2.c;	2.f;	2.a;
=9:|!	=9:|!	=9:|!	=9:|!
*>B	*>B	*>B	*>B
4D	2d	2f	2a
4d	.	.	.
8cL	4d	[4f	8aL
8B-J	.	.	8b-J
=10	=10	=10	=10
8AL	2c	8fL]	2cc
8AA	.	8g	.
8BB-	.	8f	.
8C	.	8eJ	.
8D	4A	4f	4f
8CJ	.	.	.
=11	=11	=11	=11
8DL	4d	2f	2b-
8E	.	.	.
8F	2c	.	.
8G	.	.	.
8A	.	[4f	4a
8B-J	.	.	.
=12	=12	=12	=12
2c	2c	4f]	2g
.	.	8eL	.
.	.	8dJ	.
4C;	4c;	4e;	4g;
=13	=13	=13	=13
4c	4c	4e	2g
8B-L	4d	4d	.
8A	.	.	.
8G	[4A	4d	4a
8F#J	.	.	.
=14	=14	=14	=14
8GL	4A]	4d	2b-
8FnX	.	.	.
8E-	4G	8gL	.
8D	.	8f#J	.
8E-	8cL	4g	4cc
8DJ	8dJ	.	.
=15	=15	=15	=15
8CL	8e-L	4g	4b-
8BB-J	8dJ	.	.
4C	8e-L	4g	4a
.	8cJ	.	.
4D	8AL	4f#	4b-
.	8dJ	.	.
=16	=16	=16	=16
2.GG;	2.B-;	2.d;	2.g;
=17	=17	=17	=17
8DL	4d	8fnXL	2a
8C#	.	8e	.
8D	4d	8f	.
8E	.	8gJ	.
8F	4d	8dL	8aL
8DJ	.	8fJ	8b-J
=18	=18	=18	=18
8EL	2c	8gL	2cc
8C	.	8e	.
8D	.	8f	.
8E	.	8gJ	.
8F	4c	8aL	4a
8EJ	.	8gJ	.
=19	=19	=19	=19
8DL	4d	2f	4b-
8E	.	.	.
8F	2c	.	2a
8G	.	.	.
8A	.	[4f	.
8B-J	.	.	.
=20	=20	=20	=20
2.c;	2.c;	4f]	2.g;
.	.	2e;	.
=21	=21	=21	=21
8AL	[4c	4f	2f
8B-	.	.	.
8A	8cL]	2c	.
8G	8B-	.	.
8F	8A	.	4f
8EJ	8GJ	.	.
=22	=22	=22	=22
8DL	2A	4d	4f
8E	.	.	.
8D	.	4e	4e
8C	.	.	.
8BB-	4A	8dL	4f
8AAJ	.	8cJ	.
=23	=23	=23	=23
8BB-L	4G	4d	4g
8GG	.	.	.
8C	4A	8cL	4f
8BB-	.	8dJ	.
8AA	4B-	4e	4g
8GGJ	.	.	.
=24	=24	=24	=24
2FF	2c	2f	2a
4FF;	4c;	4f;	4a;
=25	=25	=25	=25
8FFL	2c	2f	2a
8AA	.	.	.
8C	.	.	.
[8FJ	.	.	.
8FL]	4c	4g	4g
8EJ	.	.	.
=26	=26	=26	=26
8FL	2c	4g	2a
8G	.	.	.
8A	.	4f	.
8B-	.	.	.
8c	4c	4e	4g
8CJ	.	.	.
=27	=27	=27	=27
8FL	4c	2f	4a
8E	.	.	.
8D	2d	.	2b
8G	.	.	.
8F	.	4g	.
8GJ	.	.	.
=28	=28	=28	=28
2.C;	2.e;	2.g;	2.cc;
=29	=29	=29	=29
8GGL	4B-	4g	2dd
8G	.	.	.
8F	4f	2a	.
8E	.	.	.
8D	[4e	.	4ee
8C#J	.	.	.
=30	=30	=30	=30
8DL	4e]	4.a	4.ff
8F	.	.	.
8G	8dL	.	.
8A	8c#J	8g	8ee
8B-	8dL	[4f	4dd
8AJ	8cJ	.	.
=31	=31	=31	=31
8GL	4B-	4f]	4dd
8F	.	.	.
8G	4B-	4e	4ee
8E	.	.	.
8A	4A	8eL	4cc#
8AAJ	.	8gJ	.
=32	=32	=32	=32
2.D;	2.A;	2.f#;	2.dd;
==	==	==	==
*-	*-	*-	*-
!!!hum2abc: -Q ''
!!!title: @{PC#}. @{OTL@@DE}
!!!YOR1: 371 vierstimmige Choralges&auml;nge von Johann Sebastian Bach, 
!!!YOR2: 4th ed. by Alfred D&ouml;rffel (Leipzig: Breitkopf und H&auml;rtel, 
!!!YOR2: c.1875). 178 pp. Plate "V.A.10".  reprint: J.S. Bach, 371 Four-Part 
!!!YOR4: Chorales (New York: Associated Music Publishers, Inc., c.1940).
!!!SMS: B&H, 4th ed, Alfred D&ouml;rffel, c.1875, plate V.A.10
!!!EED:  Craig Stuart Sapp
!!!EEV:  2009/05/22
